X:17
T:88. The Maid of Mount Kisco
C:possibly composed by Paddy Killoran
S:Mike Rafferty
Z:Lesl
M:C|
L:1/8
K:Ador
A2{B}AG|:EA~A2 BGAG|EA~A2 BzAG|E~G3 BGAG|E~G3 EGDz|
EA~A2 BzAG|EA~A2 BA (3Bcd|efge a{b}age|dBGB AzAG:||
|~A3B dBAB|GGBG D~G3|AzAB BABd|ezge dBGB|
~A3B dBAB|GzBG D~G3|AzAB BABd|efge dzBd||
|:ea~a2 bgag|egdB GABd|ea~ag a~a2b|gede ~g3z|
~a3f ~g3e|dzdB GABd|eA~A2 efge|1 dBGB A2 (3Bcd:|2 dBGB A4||

